src/assets/icons/icon_complete.svg

<svg width="20" height="20" viewBox="0 0 20 20" fill="none" xmlns="http://www.w3.org/2000/svg">
<path d="M8.21603 3.06076C9.32737 2.10483 10.971 2.10467 12.0822 3.06076C12.5623 3.47368 13.1618 3.72236 13.7932 3.76974C15.2549 3.87953 16.4167 5.04141 16.5266 6.50314C16.574 7.13463 16.8225 7.73502 17.2356 8.21506C18.1916 9.32639 18.1917 10.97 17.2356 12.0813C16.8227 12.5613 16.574 13.1608 16.5266 13.7922C16.4168 15.254 15.255 16.4158 13.7932 16.5256C13.1618 16.573 12.5622 16.8217 12.0822 17.2346C10.971 18.1907 9.32737 18.1906 8.21603 17.2346C7.73599 16.8216 7.13561 16.573 6.50412 16.5256C5.04239 16.4157 3.8805 15.254 3.77072 13.7922C3.72334 13.1608 3.47466 12.5613 3.06174 12.0813C2.10564 10.97 2.1058 9.32639 3.06174 8.21506C3.47475 7.73502 3.72333 7.13463 3.77072 6.50314C3.88058 5.04146 5.04244 3.87961 6.50412 3.76974C7.13561 3.72235 7.73599 3.47378 8.21603 3.06076ZM13.9787 7.3508C13.6421 7.04779 13.1236 7.0748 12.8205 7.41135L9.41135 11.1994L7.39279 9.51779C7.04485 9.22784 6.5276 9.27451 6.23752 9.62228C5.9476 9.97019 5.99433 10.4875 6.34201 10.7776L8.80588 12.8303C9.2349 13.1878 9.86978 13.1429 10.2434 12.7278L14.0393 8.509C14.3423 8.17229 14.3154 7.65388 13.9787 7.3508Z" fill="#74A1FB"/>
</svg>

<svg xmlns="http://www.w3.org/2000/svg" fill="none" viewBox="0 0 20 20"><path fill="#74a1fb" d="M8.216 3.06a2.964 2.964 0 0 1 3.866 0c.48.414 1.08.662 1.711.71a2.964 2.964 0 0 1 2.734 2.733c.047.632.296 1.232.709 1.712a2.964 2.964 0 0 1 0 3.866 2.96 2.96 0 0 0-.71 1.711 2.964 2.964 0 0 1-2.733 2.734 2.96 2.96 0 0 0-1.71.709 2.964 2.964 0 0 1-3.867 0 2.97 2.97 0 0 0-1.712-.71 2.964 2.964 0 0 1-2.733-2.733 2.96 2.96 0 0 0-.71-1.71 2.964 2.964 0 0 1 0-3.867c.414-.48.662-1.08.71-1.712A2.964 2.964 0 0 1 6.504 3.77a2.97 2.97 0 0 0 1.712-.71m5.763 4.29a.82.82 0 0 0-1.158.061L9.41 11.2 7.393 9.518a.82.82 0 0 0-1.051 1.26l2.464 2.052a1.04 1.04 0 0 0 1.437-.102l3.796-4.219a.82.82 0 0 0-.06-1.158"/></svg>
